!!!COM: Richard Wagner
!!!CNT: Deutsch
!!!TXO: Deutsch
!!!OTL: Der Engel
!!!LYR: Wesendonk
!!!OPR: 5 Gedichte für eine Frauenstimme (Wesendonk Lieder)
!!!OPS: WWV 91 - no opus info available
!!!ONM: No. 1
!!!ENC: Ben Fuhrman
!!!YOR: IMSLP, no information given on the edition
!!!YOR: http://imslp.org/wiki/5_Gedichte_f%C3%BCr_eine_Frauenstimme,_WWV_91_%28Wagner,_Richard%29
!!!ODT: 1857
!!NB: Only vocal melody encoded.
!!NB: First instance of melodic material only encoded.
!!created: 2/10/10 12:45PM
!!proofed and posted: 2/10/10 12:46PM
**kern	**silbe
*clef G2	*
*k[f#]	*
*M4/4	*
*MM[Sehr ruhig bewegt]	*
=3	=3
2r	.
4r	.
{8d	{In
8d	der
=4	=4
4d	Kind-
4d	-heit
4.e	fru2-
8f#	-hen
=5	=5
4g	Ta-
4d	-gen
4.e	ho2rt'
8f#	ich
=6	=6
4.g	oft
8g	von
[2cc	En-
=7	=7
2.cc]	|
4b	-geln
=8	=8
4b	sa-
4a}	-gen,}
{(4cc	{die
4dd	des
=9	=9
4.ee	Him-
8dd	-mels
4cc	heh-
4b	-re
=10	=10
2b	Won-
4a)	-ne
([4ee	tausch-
=11	=11
4ee]	|
4dd	-ten
4.g	mit
8a	der
=12	=12
2.b	Er-
4a	-den-
=13	=13
4a	-son-
4g:)}	-ne:}
4r	.
{8d	{Dass,
8d	wo
=14	=14
8.g	bang
16a	ein
4.b-	Herz
8a	in
[4cc	Sor-
=15	=15
8cc]	|
8b-	-gen
8a	schmach-
8g	-tet
8fn	vor
8e	der
8.e-	Welt
16d	ver-
=16	=16
4d	-bor-
4c#}	-gen,}
4r	.
{8e	{dass,
8e	wo
=17	=17
8.a	still
16bn	es
4.cc	will
8bn	ver-
[4dd	-blu-
=18	=18
8dd]	|
8cc	-ten,
8b	und
8a	ver-
8g	-geh'n
8f#	in
8.fn	Tra2-
16e	-nen-
=19	=19
4e	-flu-
4d#}	-ten,}
4r	.
{8b	{dass,
8b	wo
=20	=20
[2ee	bru2n-
8ee]	|
8dd	-stig
8.cc	sein
16b	Ge-
=21	=21
4b-	-bet
[4ffn	ein
8ffn]	|
8dd	-zig
8.b-	um
16a	Er-
=20	=20
2.a	-lo2-
4g#	-sung
=23	=23
(2bn}	fleht,}
8r	.
{4b-	{da
8b-)	der
=24	=24
4.a	En-
(8dd	-gel
[2dd	nie-
=25	=25
2dd]	|
4.gg	|
8b	-der
=26	=26
2a)	schwebt,
(4a#	und
4a#	es
=27	=27
4.b	sanft
8cc#	gen
4dd	Him-
4ee	-mel
=28	=28
2ff#)}	hebt.}
2r	.
=29	=29
{4.f#	{Ja,
8f#	es
4g#	stieg
4a#	auch
=30	=30
4.b	mir
8b	ein
([2ee	En-
=31	=31
2ee]	|
4dd#)	|
4cc#	-gel
=32	=32
4cc#	nie-
4b}	-der,}
4r	.
{8b	{und
8b	auf
=33	=33
[2ccn	leuch-
8ccn]	|
8g	-tend
8.cc	dem
16dd	Ge-
=34	=34
2ee	-fie-
4cc}	-der}
4r	.
=35	=35
{4.cc	{fu2hrt
8cc	er,
[2ffn	fer-
=36	=36
4ffn]	|
4ee	-ne
(4dd	je-
8cc)	|
8b	-dem
=37	=37
2b	Schmerz,
4a	mei-
4a	-nen
=38	=38
2d	Geist
2g	nun
=39	=39
2.b	him-
4a	-mel
=40	=40
2g}	wa2rts!}
2r	.
==	==
*-	*-
